X: 4
T: anon / gan ainm
M: 9/8
L: 1/8
R: slip jig
K: G
|: GAG GBG GFD | GAG GAB cAF | GAG GBG GFD | FGA f2 d cAF :||
|: B/c/dB A/B/cA B2 G | B/c/dB cAd cAF | B/c/dB A/B/cA B2 G | FGA f2 d cAF :||
|: G2 g gdB gdB | G2 g gdB cAF | G2 g gdB gdB | A2 f fcA fcA :||
|: gag gdg g3 | gag gdg agf | gag gdg g3 | FGA f2 d cBA :||
